src/topics/icons/kitematic.svg

<?xml version="1.0" encoding="UTF-8" standalone="no"?>
<svg width="256px" height="256px" viewBox="0 0 256 256" version="1.1" xmlns="http://www.w3.org/2000/svg" xmlns:xlink="http://www.w3.org/1999/xlink" preserveAspectRatio="xMidYMid">
	<g>
		<path d="M203.031173,255.890648 L128.095417,255.890648 C103.121498,255.890648 78.13358,256.13669 53.1606614,255.890648 C27.8077441,255.640604 5.5058168,237.389435 1.01583144,212.256071 C-0.594163313,203.243506 0.191834124,193.502815 0.191834124,184.394233 L0.191834124,82.0794674 C0.191834124,72.5438117 0.123834345,63.0051554 0.191834124,53.4694996 C0.350833605,31.2306381 13.9267893,10.9201114 35.0107206,3.22977608 C45.4596865,-0.581885766 56.341651,0.0372217351 67.2366155,0.0372217351 L114.513461,0.0372217351 C143.458367,0.0372217351 172.402273,-0.000784864328 201.347178,0.0372217351 C220.939114,0.0632262505 239.147055,9.46885943 249.029023,26.7318569 C255.633001,38.2698604 256,50.4139691 256,63.1711842 L256,162.133368 L256,199.274817 C256,216.548816 250.320019,232.626608 236.623063,243.875561 C227.200094,251.614905 215.223133,255.890648 203.031173,255.890648" fill="#3CB5E8"></path>
		<path d="M46.365,63.143 L46.365,195.651 L82.694,195.651 L82.527,152.94 L99.352,132.536 L119.923,195.651 L158.868,195.651 L126.955,107.256 L158.951,62.975 L113.247,62.975 L82.527,99.22 L82.527,63.059 L46.365,63.143" fill="#FFFFFF"></path>
		<path d="M215.119,63.059 L165.842,63.059 L194.27,106.196 L166.903,195.651 L215.119,195.651 L215.119,63.059" fill="#FFFFFF"></path>
	</g>
</svg>

<svg height="256" preserveAspectRatio="xMidYMid" viewBox="0 0 256 256" width="256" xmlns="http://www.w3.org/2000/svg"><path d="m203.031173 255.890648h-74.935756c-24.973919 0-49.961837.246042-74.9347556 0-25.3529173-.250044-47.6548446-18.501213-52.14482996-43.634577-1.60999475-9.012565-.82399732-18.753256-.82399732-27.861838v-102.3147656c0-9.5356557-.06799977-19.074312 0-28.6099678.15899949-22.2388615 13.73495518-42.5493882 34.81888648-50.23972352 10.4489659-3.81166185 21.3309304-3.19255434 32.2258949-3.19255434h47.2768455c28.944906 0 57.888812-.0380066 86.833717 0 19.591936.02600451 37.799877 9.43163769 47.681845 26.69463516 6.603978 11.5380035 6.970977 23.6821122 6.970977 36.4393273v98.9621838 37.141449c0 17.273999-5.679981 33.351791-19.376937 44.600744-9.422969 7.739344-21.39993 12.015087-33.59189 12.015087" fill="#3cb5e8"/><g fill="#fff"><path d="m46.365 63.143v132.508h36.329l-.167-42.711 16.825-20.404 20.571 63.115h38.945l-31.913-88.395 31.996-44.281h-45.704l-30.72 36.245v-36.161z"/><path d="m215.119 63.059h-49.277l28.428 43.137-27.367 89.455h48.216z"/></g></svg>
